X: 17103
T: Heel And Toe, The
R: polka
M: 2/4
K: Gmajor
B4 B4|A2G2 G4|F2G2 A2B2|d2^c2 =c4|c4 c4|B2A2 A4|
G2F2 E2F2||1 E2D2 D4:|2 G6 A2|:B2E2 B2E2|B2E2 E3F|G2G2 FGF2|
E2B,2 B,4|B2E2 B2E2|B2E2 E3F|G2G2 FGF2||1 E4 E4:|2 E4 E3_E||
|:D4 G2A2|B6 c2|d2B2 G2A2|B4- B4|c2c2 A3c|B2B2 G2B2||
[1 A2E2 F2G2|A2F2 E2_E2:|2 A2c2 B2A2|G6 z2||

